X:1
T:Title
%%score { ( 1 3 5 ) | ( 2 4 ) }
L:1/8
M:4/4
K:G
V:1 treble nm="Grand Piano"
V:3 treble 
V:5 treble 
V:2 bass 
V:4 bass 
V:1
 z4 z2[Q:1/4=92] [B,D][B,G] | [DB][DB][^C_B][CB] [D=B][DB][Dc][DB] | %2
[M:3/4] [EA][EA] [CE][CE] [EA]2 |[M:1/4] [EA][EB] |[M:4/4] [Ec]FF=F ^FcB[DA] | %5
[M:3/4] [DG][DF] [DG]A B2 |[M:1/4] Bc |[M:4/4] dedB d2 B[FA] | GG[EG][EA] [DB]2 BB | %9
 A<d d[Ad] [G^c]<A Bc |[M:7/8] e- e3 z z2 |[M:1/4] DD |[M:4/4] d>d de dBGE | %13
 F6[K:bass][K:treble] z2 | [Ac]>[^GB] [Ac][Bd] [Ac][FA]FD | d6[K:bass][K:treble] z2 | %16
 d>d dB z =F,B[EB] |[M:7/8] [EA][EA][EB] [EB] [Ec]3 |[M:1/4] [^CGe]>[CGe] | %19
[M:4/4] [DGd]<[DGd] [DGd][Ge] [Gd]<[DGB] [B,DG][DGB] |[M:7/8] F2 z z z z2 |] %21
V:2
 z4 z2 [G,,G,][G,,G,] | [G,,G,][G,,G,][G,,G,][G,,G,] [G,,G,][G,,G,][A,,F,][B,,G,] | %2
[M:3/4] [C,G,][C,G,] [C,G,][C,G,] [C,G,]2 |[M:1/4] [C,G,][B,,^G,] | %4
[M:4/4] [A,,A,][D,A,C][D,A,C][D,^G,B,] [D,A,C][D,A,D][D,=G,D][C,F,] | %5
[M:3/4] [B,,G,][A,,A,] [B,,G,][D,F,D][K:treble] [G,D]2 |[M:1/4] [G,D][G,A,D] | %7
[M:4/4] [G,B,G][G,CG][G,B,G][G,DG] [G,B,G]2 [G,DG][K:bass][D,C] | %8
 [E,B,][E,B,][C,C][C,G,] [G,,G,]2[K:treble] [G,DG][G,DG] | %9
 [A,DF]<[A,F] [A,DF][K:bass][F,D] [E,E]<[K:treble][A,^CG] [A,EG][A,EG] |[M:7/8] [GA]- [GA]3 z z2 | %11
[M:1/4][K:bass] [D,C][D,C] | %12
[M:4/4][K:treble] [G,B,D]>[G,B,D] [G,B,G][G,CG] [G,B,G][K:bass][G,D][G,B,D][G,B,D] | %13
 A,,B,,/C,/ z/ .E,G,/ A,2 [D,D][D,D] | [D,D]>[D,D] [D,D][D,D] [D,D][D,D][D,CD][D,C] | %15
 .[G,,G,B,D]2 .[C,D,C].[D,E,C] [G,B,]2[K:treble] [G,G][G,A,G] | %16
 [G,B,G]>[G,B,G] [G,B,G][G,DG][K:bass] .[G,B,D]2 [E,G,E][D,^G,] | %17
[M:7/8] [C,A,][C,A,][B,,^G,] [B,,G,] [A,,A,]3 |[M:1/4] _B,,>B,, | %19
[M:4/4] B,,<B,, B,,[C,C] [D,B,]<D, D,D, |[M:7/8] z E,F, D, G,,3 |] %21
V:3
 x8 | x8 |[M:3/4] x6 |[M:1/4] x2 |[M:4/4] x8 |[M:3/4] x6 |[M:1/4] x2 |[M:4/4] x8 | x8 | x8 | %10
[M:7/8] z DE ^C d3 |[M:1/4] x2 |[M:4/4] x8 | [A,CD]2 [CD][K:bass].[F,CD] [CD]2[K:treble] [FA][GB] | %14
 x8 | z2[K:bass][K:treble] FA z4 | z4 G2 z2 |[M:7/8] x7 |[M:1/4] x2 |[M:4/4] x8 | %20
[M:7/8] [CA]2- [C-EA-] [CFA] [G,B,G]3 |] %21
V:4
 x8 | x8 |[M:3/4] x6 |[M:1/4] x2 |[M:4/4] x8 |[M:3/4] x4[K:treble] x2 |[M:1/4] x2 | %7
[M:4/4] x7[K:bass] x | x6[K:treble] x2 | x3[K:bass] x3/2[K:treble] x7/2 | %10
[M:7/8] [A,^C]B,C A, [DFA]3 |[M:1/4][K:bass] x2 |[M:4/4][K:treble] x5[K:bass] x3 | z2 D,D, z4 | %14
 x8 | x6[K:treble] x2 | x4[K:bass] x4 |[M:7/8] x7 |[M:1/4] x2 |[M:4/4] x8 |[M:7/8] D,3 z z z2 |] %21
V:5
 x8 | x8 |[M:3/4] x6 |[M:1/4] x2 |[M:4/4] x8 |[M:3/4] x6 |[M:1/4] x2 |[M:4/4] x8 | x8 | x8 | %10
[M:7/8] x7 |[M:1/4] x2 |[M:4/4] x8 | x3[K:bass] x3[K:treble] x2 | x8 | %15
 z[K:bass] A,,/B,,/[K:treble] z/ .D,F,/ G2 Bc | x8 |[M:7/8] x7 |[M:1/4] x2 |[M:4/4] x8 | %20
[M:7/8] x7 |] %21

